X: 22970
T: Lass Of Carracastle, The
R: reel
M: 4/4
K: Dmajor
|:A2FA A2FA|BdAF GFEG|FD D2 FGA2|Bdeg fedB|
A2FA A2FA|BdAF GFEG|FD D2 FGA2|Bdeg fd d4||
|:dfaf g2fg|efed cAA2|dfaf g2fg|a3g fdd2|
dfaf g2fg|efed cAA2|B3d c2cB|Afag fdd2:|

